!!!OTL@@FR: Il &eacute;tait; un' berg&egrave;re
!!!OTL@EN: The Shepherdess
!!!ARE: France
!!!AMD: Pentatonic
**kern
*clefG2
*k[f#]
*M6/8
*MM112
{4d/
=1
4g/
8a/
4b/
8a/
=2
4.g/
4d/}
{8d/
=3
4e/
8e/
8d/L
8d/
8d/J
=4
4e/
8e/
4d/}
{8d/
=5
4g/
8a/
4b/
8a/
=6
4.g/
4d/}
{8dd\
=7
4b/
8g/
4a/
8d/
=8
4g/
8g/
4g/}
{8dd\
=9
4b\
8g/
4a/
8d/
=10
[4.g/
8g/]}
==
*-
